src/pos-icons/fuse.svg

<svg height="24" viewBox="0 0 24 24" width="24" xmlns="http://www.w3.org/2000/svg"><path d="m8 7v10h7v-10zm3.16 9v-3.13h-1.75l2.5-4.87v3.14h1.68zm4.84-14v4h-9v-4a1 1 0 0 1 1-1h7a1 1 0 0 1 1 1m0 16v4a1 1 0 0 1 -1 1h-7a1 1 0 0 1 -1-1v-4z"/></svg>

<?xml version="1.0" encoding="UTF-8"?><!DOCTYPE svg PUBLIC "-//W3C//DTD SVG 1.1//EN" "http://www.w3.org/Graphics/SVG/1.1/DTD/svg11.dtd"><svg xmlns="http://www.w3.org/2000/svg" xmlns:xlink="http://www.w3.org/1999/xlink" version="1.1" id="mdi-fuse" width="24" height="24" viewBox="0 0 24 24"><path d="M8,7V17H15V7H8M11.16,16V12.87H9.41L11.91,8V11.14H13.59L11.16,16M16,2V6H7V2A1,1 0 0,1 8,1H15A1,1 0 0,1 16,2M16,18V22A1,1 0 0,1 15,23H8A1,1 0 0,1 7,22V18H16Z" /></svg>
